src/actions/16/document-close.svg

<svg xmlns="http://www.w3.org/2000/svg" viewBox="0 0 16 16">
    <defs>
        <style id="current-color-scheme" type="text/css">
            .ColorScheme-NegativeText{color:#d98c8c}
        </style>
    </defs>
    <path d="M4 1c-1.108 0-2 .892-2 2v10c0 1.108.892 2 2 2h4v-1H4c-.554 0-1-.446-1-1V3c0-.554.446-1 1-1h8c.554 0 1 .446 1 1v6h1V3c0-1.108-.892-2-2-2H4z" class="ColorScheme-NegativeText" style="fill:currentColor"/>
    <path fill="currentColor" d="M9.707 10 9 10.707l1.793 1.793L9 14.293l.707.707 1.793-1.793L13.293 15l.707-.707-1.793-1.793L14 10.707 13.293 10 11.5 11.793Z" class="ColorScheme-NegativeText"/>
</svg>

<svg version="1.1" viewBox="0 0 16 16" xmlns="http://www.w3.org/2000/svg">
 <defs>
  <style id="current-color-scheme" type="text/css">.ColorScheme-Text {
        color:#363636;
      }
      .ColorScheme-NegativeText {
        color:#da4453;
      }</style>
 </defs>
 <path d="m4 1c-1.108 0-2 0.892-2 2v10c0 1.108 0.892 2 2 2h4v-1h-4c-0.554 0-1-0.446-1-1v-10c0-0.554 0.446-1 1-1h8c0.554 0 1 0.446 1 1v6h1v-6c0-1.108-0.892-2-2-2h-8z" style="fill:currentColor" class="ColorScheme-NegativeText"/>
 <path class="ColorScheme-NegativeText" d="M 9.707,10 9,10.707 10.793,12.5 9,14.293 9.707,15 11.5,13.207 13.293,15 14,14.293 12.207,12.5 14,10.707 13.293,10 11.5,11.793 Z" fill="currentColor"/>
</svg>
